file/doordash.svg

<svg clip-rule="evenodd" fill-rule="evenodd" stroke-linejoin="round" stroke-miterlimit="1.41421" viewBox="0 0 560 400" xmlns="http://www.w3.org/2000/svg"><path d="m118.6 140.2v19.8h4.9c2.5 0 5-1.1 6.7-3 1.8-1.9 2.7-4.4 2.7-7 .1-2.6-.9-5.1-2.7-7s-4.2-2.9-6.8-2.9zm4.9-6.2c9.2 0 16.2 7.1 16.2 16.1s-7 16.1-16.2 16.1h-10.9c-.4 0-.8-.4-.8-.8v-30.6c0-.4.4-.8.8-.8zm39.9 26.7c4.2 0 8-2.6 9.6-6.5 1.6-4 .7-8.5-2.2-11.6-2.9-3-7.4-4-11.3-2.3-3.9 1.6-6.4 5.5-6.4 9.8 0 5.9 4.6 10.6 10.3 10.6m0-27.4c9.7 0 17.1 7.6 17.1 16.8s-7.4 16.8-17.1 16.8-17-7.6-17-16.8 7.4-16.8 17-16.8m40.7 27.4c5.7 0 10.3-4.8 10.3-10.6 0-5.9-4.6-10.6-10.3-10.6s-10.3 4.7-10.3 10.6c0 2.8 1.1 5.5 3 7.5s4.5 3.1 7.3 3.1m0-27.4c9.7 0 17.1 7.6 17.1 16.8s-7.4 16.8-17.1 16.8c-9.6 0-17.1-7.6-17.1-16.8s7.4-16.8 17.1-16.8m39.6 6.9h-7v8.5h7c1.1 0 2.2-.4 3-1.1.8-.8 1.3-1.9 1.3-3 0-1.2-.4-2.3-1.2-3.1-.8-.9-1.9-1.3-3.1-1.3zm-13.7-5.4c0-.4.4-.8.8-.8h13.1c6.3 0 10.8 4.7 10.8 10.6 0 4-2.1 7.7-5.6 9.4l6 11c.2.3.2.6 0 .9-.1.3-.4.4-.7.4h-5.3c-.3 0-.6-.2-.7-.4l-5.8-10.9h-5.8v10.4c0 .4-.3.8-.8.8h-5.1c-.4 0-.8-.4-.8-.8zm42.3 5.6v19.8h4.9c2.5 0 5-1.1 6.7-2.9 1.8-1.9 2.8-4.4 2.7-7 .1-2.6-.9-5.1-2.7-7s-4.2-2.9-6.8-2.9zm4.9-6.2c9.2 0 16.2 7.1 16.2 16.1s-7 16.1-16.2 16.1h-10.9c-.4 0-.8-.4-.8-.8v-30.6c0-.4.4-.8.8-.8zm36.7 7.8-3.8 10.6h7.6zm-6 16.6-2.5 7.1c-.1.3-.4.6-.8.6h-5.4c-.3 0-.6-.1-.7-.3-.2-.2-.2-.5-.1-.8l11.7-30.6c.1-.3.4-.5.8-.5h6.1c.4 0 .7.2.8.5l11.7 30.6c.1.3.1.6-.1.8s-.4.4-.7.3h-5.4c-.4 0-.7-.2-.8-.6l-2.5-7.1zm27.8-15.9c0-5.1 4.3-9.4 11-9.4 3.6-.1 7.1 1.3 9.8 3.8.3.3.3.8 0 1.1l-3 3.1c-.3.3-.8.3-1.1 0-1.4-1.3-3.3-2.1-5.2-2.1-2.7 0-4.7 1.6-4.7 3.5 0 6 15.9 2.5 15.9 14.1 0 5.8-4.3 10.3-11.9 10.3-4.3 0-8.4-1.6-11.4-4.7-.3-.3-.3-.8 0-1.1l2.9-3c.3-.3.8-.3 1.1 0 1.8 1.8 4.3 2.8 6.9 2.9 3.4 0 5.6-1.8 5.6-4.2.1-6.2-15.9-2.7-15.9-14.3m51.6-7.9v12.1h-13.5v-12.1c0-.4-.3-.8-.8-.8h-5c-.4 0-.8.4-.8.8v30.6c0 .4.4.8.8.8h5.1c.4 0 .8-.4.8-.8v-12.3h13.5v12.3c0 .4.4.8.8.8h5.1c.4 0 .8-.4.8-.8v-30.6c0-.4-.3-.8-.8-.8h-5.1c-.5 0-.9.4-.9.8zm-304.2 3.3c-3.5-6.6-10.5-10.7-18-10.6h-57.1c-.8 0-1.5.5-1.8 1.2s-.1 1.6.4 2.1l12.4 12.3c1.1 1.1 2.6 1.7 4.2 1.7h40.3c2.9 0 5.2 2.2 5.2 5.1 0 2.8-2.3 5.1-5.1 5.2h-27.8c-.8 0-1.5.5-1.8 1.2s-.1 1.6.4 2.1l12.4 12.4c1.1 1.1 2.6 1.7 4.2 1.7h12.6c16.3-.1 28.6-17.3 19.5-34.4" fill="#ff3008" fill-rule="nonzero" transform="matrix(1.28852 0 0 1.28852 22.1928 6.72258)"/></svg>

<?xml version="1.0" encoding="UTF-8" standalone="no"?>
<!DOCTYPE svg PUBLIC "-//W3C//DTD SVG 1.1//EN" "http://www.w3.org/Graphics/SVG/1.1/DTD/svg11.dtd">
<svg width="100%" height="100%" viewBox="0 0 560 400" version="1.1" xmlns="http://www.w3.org/2000/svg" xmlns:xlink="http://www.w3.org/1999/xlink" xml:space="preserve" xmlns:serif="http://www.serif.com/" style="fill-rule:evenodd;clip-rule:evenodd;stroke-linejoin:round;stroke-miterlimit:1.41421;">
    <g id="logosvg.com_1_" transform="matrix(1.28852,0,0,1.28852,22.1928,6.72258)">
        <path d="M118.6,140.2L118.6,160L123.5,160C126,160 128.5,158.9 130.2,157C132,155.1 132.9,152.6 132.9,150C133,147.4 132,144.9 130.2,143C128.4,141.1 126,140.1 123.4,140.1L118.6,140.2ZM123.5,134C132.7,134 139.7,141.1 139.7,150.1C139.7,159.1 132.7,166.2 123.5,166.2L112.6,166.2C112.2,166.2 111.8,165.8 111.8,165.4L111.8,134.8C111.8,134.4 112.2,134 112.6,134L123.5,134ZM163.4,160.7C167.6,160.7 171.4,158.1 173,154.2C174.6,150.2 173.7,145.7 170.8,142.6C167.9,139.6 163.4,138.6 159.5,140.3C155.6,141.9 153.1,145.8 153.1,150.1C153.1,156 157.7,160.7 163.4,160.7M163.4,133.3C173.1,133.3 180.5,140.9 180.5,150.1C180.5,159.3 173.1,166.9 163.4,166.9C153.7,166.9 146.4,159.3 146.4,150.1C146.4,140.9 153.8,133.3 163.4,133.3M204.1,160.7C209.8,160.7 214.4,155.9 214.4,150.1C214.4,144.2 209.8,139.5 204.1,139.5C198.4,139.5 193.8,144.2 193.8,150.1C193.8,152.9 194.9,155.6 196.8,157.6C198.7,159.6 201.3,160.7 204.1,160.7M204.1,133.3C213.8,133.3 221.2,140.9 221.2,150.1C221.2,159.3 213.8,166.9 204.1,166.9C194.5,166.9 187,159.3 187,150.1C187,140.9 194.4,133.3 204.1,133.3M243.7,140.2L236.7,140.2L236.7,148.7L243.7,148.7C244.8,148.7 245.9,148.3 246.7,147.6C247.5,146.8 248,145.7 248,144.6C248,143.4 247.6,142.3 246.8,141.5C246,140.6 244.9,140.2 243.7,140.2ZM230,134.8C230,134.4 230.4,134 230.8,134L243.9,134C250.2,134 254.7,138.7 254.7,144.6C254.7,148.6 252.6,152.3 249.1,154L255.1,165C255.3,165.3 255.3,165.6 255.1,165.9C255,166.2 254.7,166.3 254.4,166.3L249.1,166.3C248.8,166.3 248.5,166.1 248.4,165.9L242.6,155L236.8,155L236.8,165.4C236.8,165.8 236.5,166.2 236,166.2L230.9,166.2C230.5,166.2 230.1,165.8 230.1,165.4L230,134.8ZM272.3,140.4L272.3,160.2L277.2,160.2C279.7,160.2 282.2,159.1 283.9,157.3C285.7,155.4 286.7,152.9 286.6,150.3C286.7,147.7 285.7,145.2 283.9,143.3C282.1,141.4 279.7,140.4 277.1,140.4C277.2,140.4 272.3,140.4 272.3,140.4ZM277.2,134.2C286.4,134.2 293.4,141.3 293.4,150.3C293.4,159.3 286.4,166.4 277.2,166.4L266.3,166.4C265.9,166.4 265.5,166 265.5,165.6L265.5,135C265.5,134.6 265.9,134.2 266.3,134.2L277.2,134.2ZM313.9,142L310.1,152.6L317.7,152.6L313.9,142ZM307.9,158.6L305.4,165.7C305.3,166 305,166.3 304.6,166.3L299.2,166.3C298.9,166.3 298.6,166.2 298.5,166C298.3,165.8 298.3,165.5 298.4,165.2L310.1,134.6C310.2,134.3 310.5,134.1 310.9,134.1L317,134.1C317.4,134.1 317.7,134.3 317.8,134.6L329.5,165.2C329.6,165.5 329.6,165.8 329.4,166C329.2,166.2 329,166.4 328.7,166.3L323.3,166.3C322.9,166.3 322.6,166.1 322.5,165.7L320,158.6L307.9,158.6ZM335.7,142.7C335.7,137.6 340,133.3 346.7,133.3C350.3,133.2 353.8,134.6 356.5,137.1C356.8,137.4 356.8,137.9 356.5,138.2L353.5,141.3C353.2,141.6 352.7,141.6 352.4,141.3C351,140 349.1,139.2 347.2,139.2C344.5,139.2 342.5,140.8 342.5,142.7C342.5,148.7 358.4,145.2 358.4,156.8C358.4,162.6 354.1,167.1 346.5,167.1C342.2,167.1 338.1,165.5 335.1,162.4C334.8,162.1 334.8,161.6 335.1,161.3L338,158.3C338.3,158 338.8,158 339.1,158.3C340.9,160.1 343.4,161.1 346,161.2C349.4,161.2 351.6,159.4 351.6,157C351.7,150.8 335.7,154.3 335.7,142.7M387.3,134.8L387.3,146.9L373.8,146.9L373.8,134.8C373.8,134.4 373.5,134 373,134L368,134C367.6,134 367.2,134.4 367.2,134.8L367.2,165.4C367.2,165.8 367.6,166.2 368,166.2L373.1,166.2C373.5,166.2 373.9,165.8 373.9,165.4L373.9,153.1L387.4,153.1L387.4,165.4C387.4,165.8 387.8,166.2 388.2,166.2L393.3,166.2C393.7,166.2 394.1,165.8 394.1,165.4L394.1,134.8C394.1,134.4 393.8,134 393.3,134L388.2,134C387.7,134 387.3,134.4 387.3,134.8ZM83.1,138.1C79.6,131.5 72.6,127.4 65.1,127.5L8,127.5C7.2,127.5 6.5,128 6.2,128.7C5.9,129.4 6.1,130.3 6.6,130.8L19,143.1C20.1,144.2 21.6,144.8 23.2,144.8L63.5,144.8C66.4,144.8 68.7,147 68.7,149.9C68.7,152.7 66.4,155 63.6,155.1L35.8,155.1C35,155.1 34.3,155.6 34,156.3C33.7,157 33.9,157.9 34.4,158.4L46.8,170.8C47.9,171.9 49.4,172.5 51,172.5L63.6,172.5C79.9,172.4 92.2,155.2 83.1,138.1" style="fill:rgb(255,48,8);fill-rule:nonzero;"/>
    </g>
</svg>
